X:624
T:Courtney's favorite
R:Jig
O:Ireland
B:O'Neill's 798
S:O'Neill's
Z:Transcription:Stephen Foy, chords:Mike Long
M:6/8
L:1/8
K:G
"Em"BEE BEE|"Em"BAB/c/ "D"dAF|"Em"BEE BEE|"C"~A2G "D"FED|\
"Em"BEE "C"cEE|"D"dEE "C"cEE|"G"BAB/c/ dcB|"D"ABG FED||
"Em"BEE BEE|"Em"BAB/c/ "D"dAF|"Em"BEE BEE|"C"~A2G "D"FED|\
"Em"BEE "C"cEE|"D"dEE "C"cEE|"G"Bec dcB|"D"~A2G FGE|]
|:"D"DFA ~d2d|"G"BAB/^c/ dAF|\
"D"DFA ~d^cd|"G"~BAG FED|\
"D"DFA ABd|"A"Bee efg|"G/D"{g}fed ~e2d|"G"BAG FED:|
